icons/svg/shopping/pastry.svg

<?xml version="1.0" encoding="UTF-8" standalone="no"?>
<!-- Created with Inkscape (http://www.inkscape.org/) -->

<svg
   xmlns:dc="http://purl.org/dc/elements/1.1/"
   xmlns:cc="http://creativecommons.org/ns#"
   xmlns:rdf="http://www.w3.org/1999/02/22-rdf-syntax-ns#"
   xmlns:svg="http://www.w3.org/2000/svg"
   xmlns="http://www.w3.org/2000/svg"
   xmlns:sodipodi="http://sodipodi.sourceforge.net/DTD/sodipodi-0.dtd"
   xmlns:inkscape="http://www.inkscape.org/namespaces/inkscape"
   version="1.0"
   width="580"
   height="580"
   id="svg2"
   sodipodi:version="0.32"
   inkscape:version="0.48.4 r9939"
   sodipodi:docname="pastry.svg"
   inkscape:output_extension="org.inkscape.output.svg.inkscape">
  <metadata
     id="metadata10">
    <rdf:RDF>
      <cc:Work
         rdf:about="">
        <dc:format>image/svg+xml</dc:format>
        <dc:type
           rdf:resource="http://purl.org/dc/dcmitype/StillImage" />
        <cc:license
           rdf:resource="http://web.resource.org/cc/PublicDomain" />
        <dc:language>en</dc:language>
        <dc:title />
      </cc:Work>
    </rdf:RDF>
  </metadata>
  <sodipodi:namedview
     inkscape:window-height="1004"
     inkscape:window-width="1920"
     inkscape:pageshadow="2"
     inkscape:pageopacity="0.0"
     guidetolerance="10.0"
     gridtolerance="10.0"
     objecttolerance="10.0"
     borderopacity="1.0"
     bordercolor="#666666"
     pagecolor="#ffffff"
     id="base"
     showgrid="false"
     inkscape:zoom="0.70710678"
     inkscape:cx="192.23984"
     inkscape:cy="281.89189"
     inkscape:window-x="1680"
     inkscape:window-y="0"
     inkscape:current-layer="svg2"
     inkscape:window-maximized="1" />
  <defs
     id="defs4">
    <clipPath
       id="clipoutline2"
       clipPathUnits="userSpaceOnUse">
      <path
         d="M 55.8,12 L 56.56,12.16 C 65.4,9.22 85.24,20.8 80.82,31.12 C 79.7,32.74 79.89,35.62 81.24,37.43 L 56.43,62.25 C 55.04,60.86 51.95,60.89 50.53,62.25 L 9.5,101.63 C 5.76,105.22 8.7,108.27 10.28,109.88 L 17.64,117.24 C 19.25,118.84 23.5,121 26.52,117.8 L 65.24,76.99 C 66.59,75.57 66.6,72.52 65.24,71.12 C 65.24,71.12 65.25,71.1 65.24,71.1 L 90.15,46.2 C 92.78,48.57 95.263827,48.774854 97.62,48.13 C 102.17057,46.884568 104.70725,51.336643 107.43,54.59 L 106.2,55.8 C 104.38,57.64 104.55,60.74 106.59,62.78 C 108.63,64.82 111.74,64.99 113.56,63.17 L 121.7,55.04 C 123.52,53.2 123.35,50.1 121.3,48.07 C 119.46,46.22 116.79,45.98 114.93,47.3 C 109.35,41.04 112.28,40.1 104.92,31.95 L 91.13,17.86 C 81.2,8.12 68.3,8.13 55.8,12 z"
         id="outline2" />
    </clipPath>
    <clipPath
       id="clipoutline1"
       clipPathUnits="userSpaceOnUse">
      <path
         d="M 22.42,17.2 L 35.38,30.15 L 32.88,38.93 L 24.1,41.43 L 11.14,28.47 L 5.28,34.33 L 20.17,55.79 L 37.73,52.45 L 99.36,118.07 C 108.8,127.58 121.53,113.32 112.7,105.2 L 46.85,42.92 L 50.86,25.16 L 28.72,10.89 L 22.42,17.2 z M 103.48,109.17 C 105.16,107.49 107.88,107.49 109.56,109.17 C 111.24,110.85 111.24,113.57 109.56,115.25 C 107.88,116.92 105.16,116.92 103.48,115.25 C 101.8,113.57 101.8,110.85 103.48,109.17 z"
         id="outline1" />
    </clipPath>
    <inkscape:perspective
       sodipodi:type="inkscape:persp3d"
       inkscape:vp_x="0 : 290 : 1"
       inkscape:vp_y="0 : 1000 : 0"
       inkscape:vp_z="580 : 290 : 1"
       inkscape:persp3d-origin="290 : 193.33333 : 1"
       id="perspective12" />
    <style
       type="text/css"
       id="style6">
   
    .fil0 {fill:#EF7900}
   
  </style>
    <inkscape:perspective
       id="perspective6807"
       inkscape:persp3d-origin="29.116032 : 19.410688 : 1"
       inkscape:vp_z="58.232063 : 29.116032 : 1"
       inkscape:vp_y="0 : 1000 : 0"
       inkscape:vp_x="0 : 29.116032 : 1"
       sodipodi:type="inkscape:persp3d" />
    <inkscape:perspective
       id="perspective6954"
       inkscape:persp3d-origin="290 : 193.33333 : 1"
       inkscape:vp_z="580 : 290 : 1"
       inkscape:vp_y="0 : 1000 : 0"
       inkscape:vp_x="0 : 290 : 1"
       sodipodi:type="inkscape:persp3d" />
    <marker
       viewBox="0 0 10 10"
       refY="5"
       refX="10"
       orient="auto"
       markerWidth="4"
       markerUnits="strokeWidth"
       markerHeight="3"
       id="ArrowStart">
      <path
         id="path2295"
         d="M 10 0 L 0 5 L 10 10 z" />
    </marker>
    <marker
       viewBox="0 0 10 10"
       refY="5"
       refX="0"
       orient="auto"
       markerWidth="4"
       markerUnits="strokeWidth"
       markerHeight="3"
       id="ArrowEnd">
      <path
         id="path2292"
         d="M 0 0 L 10 5 L 0 10 z" />
    </marker>
    <inkscape:perspective
       id="perspective7597"
       inkscape:persp3d-origin="178.5405 : 158.483 : 1"
       inkscape:vp_z="357.08099 : 237.7245 : 1"
       inkscape:vp_y="0 : 1000 : 0"
       inkscape:vp_x="0 : 237.7245 : 1"
       sodipodi:type="inkscape:persp3d" />
  </defs>
  <g
     id="g1327"
     transform="translate(0.5,-0.5)">
    <path
       d="M 66.275,1.768 C 24.94,1.768 1.704,23.139 1.704,66.804 l 0,450.123 c 0,40.844 20.894,62.229 62.192,62.229 l 452.024,0 c 41.307,0 62.229,-20.316 62.229,-62.229 l 0,-450.123 c 0,-42.601 -20.922,-65.036 -63.522,-65.036 -0.003,0 -448.494,-0.143 -448.352,0 z"
       style="fill:#111111;stroke:#eeeeee;stroke-width:3.40799999"
       id="path1329"
       inkscape:connector-curvature="0" />
  </g>
  <g
     id="g2319"
     transform="translate(879.29125,36.805119)">
    <path
       id="path2323"
       style="fill:#ffffff;stroke:none"
       d="" />
  </g>
  <g
     id="g2325"
     transform="translate(879.29125,36.805119)">
    <path
       id="path2329"
       style="fill:#ffffff;stroke:none"
       d="" />
  </g>
  <path
     inkscape:connector-curvature="0"
     d="m 113.50633,335.075 60.48245,167.89755 c 1.30217,3.606 4.73515,6.0191 8.5688,6.0191 h 44.96572 l -28.4109,-144.8501 c -0.96525,-4.93549 2.2492,-9.71616 7.18469,-10.69051 4.92637,-0.97435 9.71616,2.24919 10.69051,7.18468 l 29.09386,148.36504 h 34.81247 V 362.39318 c 0,-5.03564 4.07952,-9.10605 9.10606,-9.10605 5.02655,0 9.10607,4.07041 9.10607,9.10605 v 146.60758 h 34.05665 l 29.85878,-148.40147 c 0.98346,-4.92637 5.80967,-8.14082 10.72694,-7.13004 4.92637,0.99256 8.1226,5.80055 7.13004,10.72694 l -29.13939,144.80457 h 45.71242 c 3.84277,0 7.26664,-2.41311 8.5597,-6.01911 L 466.49366,335.075 H 113.50633 z"
     id="path3"
     style="fill:#ffffff;fill-opacity:1;stroke:none" />
  <path
     inkscape:connector-curvature="0"
     d="m 429.81445,136.02562 c -1.98513,-8.51415 -9.07875,-17.40167 -20.02423,-23.81233 -7.62178,-4.46197 -15.81724,-6.92062 -23.08386,-6.92062 -4.33449,0 -8.12262,0.90151 -11.28241,2.54971 -17.5747,-6.85687 -35.46812,-12.274982 -52.35985,-15.698852 -6.10107,-13.012573 -18.56726,-21.144286 -33.06411,-21.144286 -14.36936,0 -26.73539,7.986017 -32.89108,20.789146 -46.40448,6.4653 -94.86695,27.427452 -132.01057,56.821822 -9.51583,-1.42966 -21.81812,3.74259 -31.370378,14.23276 -9.925597,10.89996 -13.977793,23.48454 -11.382566,32.79093 -13.03988,20.97126 -19.996909,43.89122 -19.996909,66.59262 0,31.66178 17.620227,54.63637 41.887873,54.63637 h 367.88483 c 17.00102,0 45.53032,-7.09363 45.53032,-54.63637 0,-42.9715 -32.53596,-89.7129 -87.83706,-126.2009 z M 120.65459,187.3565 c -9.48852,10.41733 -21.690637,14.73359 -27.272647,9.65241 -5.57291,-5.08118 -2.413107,-17.63843 7.066297,-28.04666 9.48852,-10.40823 21.69064,-14.7336 27.26354,-9.65243 5.59112,5.08119 2.42221,17.63845 -7.05719,28.04668 z m 122.55846,19.6873 c -9.67063,6.34692 -25.11451,-0.0911 -34.49376,-14.38758 -9.37924,-14.29651 -9.15159,-31.02435 0.51905,-37.37128 9.67064,-6.34691 25.11452,0.10016 34.50286,14.39668 9.37924,14.28742 9.14249,31.02436 -0.52815,37.36218 z m 133.07597,-88.06471 c 3.81545,-6.51085 16.75516,-6.01911 28.91174,1.09272 12.14749,7.11184 18.90419,18.16659 15.09785,24.66832 -3.80634,6.50172 -16.75515,6.01911 -28.90264,-1.10183 -12.15659,-7.10273 -18.92239,-18.14838 -15.10695,-24.65921 z m 31.17915,138.6944 c -9.56135,0 -17.30151,-11.40989 -17.30151,-25.49697 0,-14.08707 7.74925,-25.49697 17.30151,-25.49697 9.55225,0 17.29241,11.41901 17.29241,25.49697 0,14.07797 -7.74016,25.49697 -17.29241,25.49697 z"
     id="path5"
     style="fill:#ffffff;fill-opacity:1;stroke:none" />
  <g
     id="g7"
     transform="matrix(9.1060604,0,0,9.1060604,62.348488,70.999242)"
     style="fill:#ffffff;fill-opacity:1;stroke:none">
    <path
       inkscape:connector-curvature="0"
       d="m 35.62,4.766 c 0.594,0 1.324,0.209 2.03,0.623 1.334,0.781 2.076,1.995 1.658,2.709 -0.197,0.336 -0.616,0.503 -1.145,0.503 -0.593,0 -1.323,-0.21 -2.029,-0.624 C 34.799,7.196 34.056,5.983 34.475,5.268 34.673,4.932 35.093,4.766 35.62,4.766 m 0,-2 0,0 c -1.269,0 -2.314,0.544 -2.87,1.492 -0.585,0.997 -0.515,2.231 0.192,3.385 0.482,0.788 1.257,1.519 2.183,2.061 0.986,0.579 2.066,0.897 3.039,0.897 1.27,0 2.316,-0.544 2.871,-1.494 1.023,-1.75 0.024,-4.04 -2.374,-5.444 C 37.672,3.084 36.593,2.766 35.62,2.766 l 0,0 z"
       id="path9"
       style="fill:#ffffff;fill-opacity:1;stroke:none" />
  </g>
  <g
     id="g11"
     transform="matrix(9.1060604,0,0,9.1060604,62.348488,70.999242)"
     style="fill:#ffffff;fill-opacity:1;stroke:none">
    <path
       inkscape:connector-curvature="0"
       d="m 6.504,9.464 c 0.268,0 0.501,0.075 0.675,0.234 0.613,0.558 0.265,1.937 -0.776,3.08 -0.745,0.818 -1.644,1.294 -2.319,1.294 -0.268,0 -0.501,-0.075 -0.676,-0.234 C 2.796,13.28 3.143,11.901 4.184,10.758 4.93,9.94 5.829,9.465 6.504,9.464 m 0,-2 0,0 c -1.267,0 -2.687,0.728 -3.797,1.947 -1.873,2.058 -2.144,4.541 -0.645,5.906 0.542,0.494 1.242,0.755 2.022,0.755 1.268,0 2.687,-0.728 3.797,-1.947 C 9.754,12.069 10.025,9.585 8.525,8.22 7.983,7.726 7.284,7.464 6.504,7.464 l 0,0 z"
       id="path13"
       style="fill:#ffffff;fill-opacity:1;stroke:none" />
  </g>
</svg>

<svg width="580" height="580" viewBox="0 0 580 580" fill="none" xmlns="http://www.w3.org/2000/svg">
<g clip-path="url(#clip0)">
<path d="M66.7751 1.26863C25.4401 1.26863 2.2041 22.6396 2.2041 66.3046V516.428C2.2041 557.272 23.0981 578.657 64.3961 578.657H516.42C557.727 578.657 578.649 558.341 578.649 516.428V66.3046C578.649 23.7036 557.727 1.26863 515.127 1.26863C515.124 1.26863 66.6331 1.12563 66.7751 1.26863V1.26863Z" fill="#111111" stroke="#EEEEEE" stroke-width="3.408"/>
<path d="M113.506 335.074L173.989 502.972C175.291 506.578 178.724 508.991 182.558 508.991H227.523L199.112 364.141C198.147 359.205 201.362 354.425 206.297 353.45C211.223 352.476 216.013 355.699 216.988 360.635L246.081 509H280.894V362.392C280.894 357.357 284.973 353.286 290 353.286C295.027 353.286 299.106 357.357 299.106 362.392V509H333.163L363.021 360.599C364.005 355.672 368.831 352.458 373.748 353.468C378.675 354.461 381.871 359.269 380.878 364.195L351.739 509H397.452C401.294 509 404.718 506.587 406.011 502.981L466.494 335.074H113.506Z" fill="white"/>
<path d="M429.814 136.026C427.829 127.512 420.736 118.625 409.79 112.214C402.168 107.752 393.973 105.293 386.706 105.293C382.372 105.293 378.584 106.195 375.424 107.843C357.849 100.986 339.956 95.5682 323.064 92.1443C316.963 79.1317 304.497 71 290 71C275.631 71 263.265 78.986 257.109 91.7891C210.704 98.2544 162.242 119.217 125.098 148.611C115.582 147.181 103.28 152.354 93.7279 162.844C83.8023 173.744 79.7501 186.328 82.3453 195.635C69.3054 216.606 62.3484 239.526 62.3484 262.227C62.3484 293.889 79.9686 316.864 104.236 316.864H472.121C489.122 316.864 517.651 309.77 517.651 262.227C517.651 219.256 485.115 172.514 429.814 136.026ZM120.654 187.357C111.166 197.775 98.9639 202.091 93.3818 197.01C87.8089 191.928 90.9687 179.371 100.448 168.963C109.937 158.555 122.139 154.229 127.712 159.311C133.303 164.392 130.134 176.949 120.654 187.357ZM243.213 207.045C233.542 213.391 218.098 206.953 208.719 192.657C199.34 178.36 199.568 161.633 209.238 155.286C218.909 148.939 234.353 155.386 243.741 169.682C253.12 183.97 252.884 200.707 243.213 207.045V207.045ZM376.289 118.98C380.104 112.469 393.044 112.961 405.201 120.073C417.348 127.184 424.105 138.239 420.299 144.741C416.492 151.243 403.543 150.76 391.396 143.639C379.239 136.536 372.474 125.491 376.289 118.98V118.98ZM407.468 257.674C397.907 257.674 390.167 246.264 390.167 232.177C390.167 218.09 397.916 206.68 407.468 206.68C417.02 206.68 424.76 218.099 424.76 232.177C424.76 246.255 417.02 257.674 407.468 257.674Z" fill="white"/>
<path d="M386.706 114.4C392.115 114.4 398.763 116.303 405.192 120.073C417.339 127.185 424.096 138.239 420.29 144.741C418.496 147.801 414.68 149.321 409.863 149.321C404.463 149.321 397.816 147.409 391.387 143.639C379.23 136.527 372.465 125.482 376.28 118.971C378.083 115.911 381.908 114.4 386.706 114.4ZM386.706 96.1875C375.151 96.1875 365.635 101.141 360.572 109.774C355.245 118.852 355.882 130.089 362.32 140.598C366.71 147.773 373.767 154.43 382.199 159.365C391.178 164.638 401.012 167.533 409.872 167.533C421.437 167.533 430.962 162.58 436.016 153.929C445.331 137.993 436.234 117.141 414.398 104.356C405.392 99.0832 395.567 96.1875 386.706 96.1875Z" fill="white"/>
<path d="M121.574 157.179C124.015 157.179 126.137 157.862 127.721 159.31C133.303 164.391 130.134 176.948 120.655 187.356C113.871 194.805 105.684 199.14 99.5378 199.14C97.0973 199.14 94.9756 198.457 93.3821 197.009C87.8092 191.928 90.969 179.37 100.448 168.962C107.241 161.513 115.428 157.188 121.574 157.179ZM121.574 138.967C110.037 138.967 97.1064 145.596 86.9987 156.696C69.9431 175.437 67.4753 198.047 81.1253 210.477C86.0608 214.975 92.435 217.352 99.5378 217.352C111.084 217.352 124.006 210.723 134.113 199.622C151.169 180.9 153.637 158.281 139.978 145.851C135.042 141.353 128.677 138.967 121.574 138.967Z" fill="white"/>
</g>
<defs>
<clipPath id="clip0">
<path d="M0 0H580V580H0V0Z" fill="white"/>
</clipPath>
</defs>
</svg>
